X:64
T:The White Shores
R:jig
M:6/8
K:G
|: B2B BAG | E2E GED | DEG BAG | cAB AGA | B2B BAG | E2E GED | DEG BAG | dBA G3 :|3 g2e fed | \
 B2B BAG | DEd edd | ged BAG | g2e =fed | B2B BAG | DEd edd | ged G2G | g2e =fed | \
 B2B BAG | DEd edd | ged BAG | B2B BAG | A2A BAG | DEG BAG | dBA G3 |
